; generated by Slic3r Prusa Edition 1.40.1+linux64 on 2018-08-08 at 12:06:32

; 

; external perimeters extrusion width = 0.45mm
; perimeters extrusion width = 0.45mm
; infill extrusion width = 0.45mm
; solid infill extrusion width = 0.45mm
; top infill extrusion width = 0.40mm

M107
M190 S50 ; set bed temperature and wait for it to be reached
M104 S185 ; set temperature
; Begin of 'Start G-code'

M98 Pstart.g

; End of 'Start G-code'
; Filament gcode
M109 S185 ; set temperature and wait for it to be reached
G21 ; set units to millimeters
G90 ; use absolute coordinates
M83 ; use relative distances for extrusion
G10 ; retract
G1 Z0.250 F4800.000
G1 X165.800 Y151.298
G11 ; unretract
G1 F1500
G1 X166.261 Y150.800 E0.02518
G1 X166.803 Y150.322 E0.02678
G1 X167.383 Y149.910 E0.02640
G1 X168.004 Y149.560 E0.02641
G1 X168.663 Y149.274 E0.02663
G1 X169.316 Y149.067 E0.02542
G1 X169.953 Y148.932 E0.02415
G1 X170.377 Y148.876 E0.01585
G1 X170.769 Y148.849 E0.01455
G1 X171.164 Y148.848 E0.01467
G1 X171.840 Y148.889 E0.02508
G1 X172.548 Y149.010 E0.02665
G1 X173.229 Y149.200 E0.02622
G1 X173.875 Y149.455 E0.02574
G1 X174.405 Y149.726 E0.02207
G1 X175.008 Y150.108 E0.02647
G1 X175.478 Y150.471 E0.02202
G1 X175.993 Y150.954 E0.02617
G1 X176.437 Y151.463 E0.02505
G1 X176.808 Y151.977 E0.02348
G1 X177.130 Y152.518 E0.02335
G1 X177.401 Y153.084 E0.02326
G1 X177.621 Y153.672 E0.02331
G1 X177.766 Y154.179 E0.01954
G1 X177.851 Y154.577 E0.01507
G1 X177.938 Y155.205 E0.02354
G1 X177.969 Y155.841 E0.02360
G1 X177.952 Y156.368 E0.01953
G1 X177.909 Y156.794 E0.01590
G1 X177.793 Y157.440 E0.02432
G1 X177.617 Y158.076 E0.02448
G1 X177.377 Y158.703 E0.02487
G1 X177.073 Y159.314 E0.02531
G1 X176.681 Y159.934 E0.02722
G1 X176.357 Y160.353 E0.01960
G1 X175.896 Y160.851 E0.02518
G1 X175.360 Y161.324 E0.02651
G1 X174.779 Y161.737 E0.02644
G1 X174.153 Y162.091 E0.02664
G1 X173.494 Y162.376 E0.02663
G1 X172.841 Y162.583 E0.02542
G1 X172.203 Y162.718 E0.02415
G1 X171.787 Y162.773 E0.01556
G1 X171.045 Y162.806 E0.02755
G1 X170.318 Y162.761 E0.02702
G1 X169.609 Y162.641 E0.02666
G1 X168.928 Y162.450 E0.02622
G1 X168.282 Y162.195 E0.02574
G1 X167.752 Y161.924 E0.02207
G1 X167.149 Y161.542 E0.02647
G1 X166.679 Y161.179 E0.02202
G1 X166.164 Y160.696 E0.02617
G1 X165.720 Y160.187 E0.02505
G1 X165.349 Y159.674 E0.02348
G1 X165.027 Y159.132 E0.02335
G1 X164.756 Y158.567 E0.02326
G1 X164.536 Y157.978 E0.02331
G1 X164.391 Y157.471 E0.01954
G1 X164.306 Y157.074 E0.01507
G1 X164.219 Y156.445 E0.02354
G1 X164.188 Y155.809 E0.02360
G1 X164.205 Y155.283 E0.01953
G1 X164.248 Y154.856 E0.01590
G1 X164.364 Y154.210 E0.02432
G1 X164.540 Y153.574 E0.02448
G1 X164.780 Y152.947 E0.02487
G1 X165.084 Y152.336 E0.02531
G1 X165.476 Y151.716 E0.02722
G1 X165.763 Y151.345 E0.01738
G1 X165.497 Y151.041 F4800.000
G1 F1125
G1 X165.984 Y150.516 E0.02658
G1 X166.557 Y150.011 E0.02830
G1 X167.171 Y149.574 E0.02794
G1 X167.827 Y149.204 E0.02794
G1 X168.524 Y148.902 E0.02815
G1 X169.215 Y148.683 E0.02689
G1 X169.887 Y148.541 E0.02545
G1 X170.338 Y148.482 E0.01687
G1 X170.754 Y148.453 E0.01549
G1 X171.176 Y148.452 E0.01563
G1 X171.885 Y148.495 E0.02633
G1 X172.635 Y148.622 E0.02821
G1 X173.356 Y148.824 E0.02775
G1 X174.039 Y149.093 E0.02721
G1 X174.602 Y149.381 E0.02345
G1 X175.236 Y149.783 E0.02783
G1 X175.736 Y150.169 E0.02342
G1 X176.278 Y150.679 E0.02761
G1 X176.748 Y151.216 E0.02646
G1 X177.140 Y151.759 E0.02482
G1 X177.480 Y152.331 E0.02466
G1 X177.766 Y152.928 E0.02456
G1 X177.998 Y153.548 E0.02455
G1 X178.151 Y154.083 E0.02063
G1 X178.242 Y154.508 E0.01610
G1 X178.333 Y155.168 E0.02473
G1 X178.366 Y155.838 E0.02485
G1 X178.347 Y156.394 E0.02063
G1 X178.301 Y156.849 E0.01696
G1 X178.180 Y157.528 E0.02556
G1 X177.994 Y158.200 E0.02586
G1 X177.741 Y158.862 E0.02628
G1 X177.419 Y159.509 E0.02678
G1 X177.006 Y160.162 E0.02866
G1 X176.660 Y160.609 E0.02095
G1 X176.173 Y161.135 E0.02658
G1 X175.606 Y161.635 E0.02802
G1 X174.992 Y162.072 E0.02797
G1 X174.330 Y162.446 E0.02818
G1 X173.633 Y162.748 E0.02815
G1 X172.942 Y162.967 E0.02689
G1 X172.270 Y163.109 E0.02545
G1 X171.822 Y163.168 E0.01676
G1 X171.042 Y163.203 E0.02896
G1 X170.272 Y163.155 E0.02858
G1 X169.522 Y163.028 E0.02821
G1 X168.801 Y162.826 E0.02775
G1 X168.118 Y162.557 E0.02721
G1 X167.555 Y162.269 E0.02345
G1 X166.921 Y161.867 E0.02783
G1 X166.421 Y161.481 E0.02342
G1 X165.879 Y160.971 E0.02761
G1 X165.409 Y160.434 E0.02646
G1 X165.017 Y159.891 E0.02482
G1 X164.677 Y159.320 E0.02466
G1 X164.391 Y158.722 E0.02456
G1 X164.159 Y158.102 E0.02455
G1 X164.006 Y157.567 E0.02063
G1 X163.915 Y157.142 E0.01610
G1 X163.824 Y156.482 E0.02473
G1 X163.791 Y155.812 E0.02485
G1 X163.810 Y155.256 E0.02063
G1 X163.856 Y154.801 E0.01696
G1 X163.977 Y154.122 E0.02556
G1 X164.163 Y153.450 E0.02586
G1 X164.416 Y152.788 E0.02628
G1 X164.738 Y152.142 E0.02678
G1 X165.151 Y151.488 E0.02866
G1 X165.460 Y151.089 E0.01872
G1 X165.891 Y151.111 F4800.000
G10 ; retract
G1 X165.287 Y159.531
G11 ; unretract
G1 F1800
G1 X167.492 Y161.736 E0.11873
G1 X168.651 Y162.320 F4800.000
G1 F1800
G1 X165.047 Y158.716 E0.19406
G1 X164.939 Y158.489 E0.00957
G1 X164.684 Y157.777 E0.02878
G1 X169.238 Y162.331 E0.24521
G1 X169.652 Y162.447 E0.01636
G1 X169.987 Y162.504 E0.01291
G1 X164.498 Y157.015 E0.29553
G1 X164.413 Y156.354 E0.02536
G1 X170.641 Y162.583 E0.33535
G1 X171.047 Y162.608 E0.01548
G1 X171.233 Y162.599 E0.00711
G1 X164.388 Y155.754 E0.36858
G1 X164.412 Y155.203 E0.02100
G1 X171.783 Y162.573 E0.39686
G1 X172.284 Y162.499 E0.01928
G1 X164.479 Y154.694 E0.42026
G1 X164.570 Y154.209 E0.01877
G1 X172.759 Y162.398 E0.44092
G1 X173.198 Y162.262 E0.01752
G1 X164.695 Y153.759 E0.45786
G1 X164.845 Y153.333 E0.01719
G1 X173.618 Y162.106 E0.47241
G1 X174.020 Y161.932 E0.01666
G1 X165.012 Y152.925 E0.48500
G1 X165.203 Y152.540 E0.01635
G1 X174.391 Y161.728 E0.49472
G1 X174.752 Y161.513 E0.01598
G1 X165.418 Y152.179 E0.50259
G1 X165.641 Y151.827 E0.01588
G1 X175.088 Y161.274 E0.50866
G1 X175.407 Y161.017 E0.01559
G1 X165.892 Y151.502 E0.51234
G1 X166.163 Y151.197 E0.01552
G1 X175.713 Y160.748 E0.51422
G1 X175.994 Y160.453 E0.01550
G1 X166.444 Y150.903 E0.51422
G1 X166.750 Y150.633 E0.01553
G1 X176.265 Y160.148 E0.51233
G1 X176.516 Y159.824 E0.01562
G1 X167.069 Y150.376 E0.50867
G1 X167.405 Y150.137 E0.01572
G1 X176.739 Y159.471 E0.50258
G1 X176.953 Y159.110 E0.01599
G1 X167.765 Y149.922 E0.49473
G1 X168.137 Y149.718 E0.01614
G1 X177.145 Y158.726 E0.48500
G1 X177.312 Y158.318 E0.01679
G1 X168.539 Y149.544 E0.47241
G1 X168.958 Y149.388 E0.01705
G1 X177.462 Y157.892 E0.45787
G1 X177.587 Y157.441 E0.01781
G1 X169.398 Y149.252 E0.44092
G1 X169.873 Y149.151 E0.01849
G1 X177.678 Y156.957 E0.42026
G1 X177.745 Y156.447 E0.01955
G1 X170.384 Y149.087 E0.39630
G1 X170.919 Y149.047 E0.02043
G1 X177.769 Y155.896 E0.36881
G1 X177.744 Y155.296 E0.02288
G1 X171.516 Y149.068 E0.33533
G1 X171.817 Y149.086 E0.01146
G1 X172.170 Y149.146 E0.01365
G1 X177.659 Y154.635 E0.29554
G1 X177.574 Y154.227 E0.01588
G1 X177.473 Y153.873 E0.01400
G1 X172.918 Y149.319 E0.24523
G1 X173.166 Y149.388 E0.00979
G1 X173.829 Y149.654 E0.02719
G1 X177.452 Y153.277 E0.19509
G1 X176.870 Y152.119 F4800.000
G1 F1800
G1 X174.665 Y149.914 E0.11875
G10 ; retract
G1 X115.822 Y169.308 F4800.000
G11 ; unretract
G1 F1500
G1 X116.144 Y170.265 E0.03745
G1 X116.364 Y171.262 E0.03785
G1 X116.474 Y172.271 E0.03764
G1 X116.474 Y173.289 E0.03775
G1 X116.364 Y174.296 E0.03755
G1 X116.146 Y175.288 E0.03765
G1 X115.822 Y176.250 E0.03765
G1 X115.396 Y177.172 E0.03765
G1 X114.872 Y178.042 E0.03765
G1 X114.258 Y178.850 E0.03765
G1 X113.559 Y179.587 E0.03765
G1 X112.788 Y180.242 E0.03752
G1 X111.944 Y180.815 E0.03783
G1 X111.048 Y181.290 E0.03759
G1 X110.105 Y181.666 E0.03765
G1 X109.126 Y181.938 E0.03765
G1 X108.124 Y182.102 E0.03765
G1 X107.110 Y182.157 E0.03765
G1 X106.096 Y182.102 E0.03765
G1 X105.094 Y181.938 E0.03765
G1 X104.116 Y181.666 E0.03765
G1 X103.173 Y181.290 E0.03765
G1 X102.277 Y180.815 E0.03758
G1 X101.433 Y180.243 E0.03783
G1 X100.661 Y179.587 E0.03754
G1 X99.963 Y178.850 E0.03765
G1 X99.348 Y178.042 E0.03765
G1 X98.826 Y177.174 E0.03753
G1 X98.398 Y176.248 E0.03784
G1 X98.074 Y175.288 E0.03757
G1 X97.856 Y174.296 E0.03765
G1 X97.746 Y173.287 E0.03765
G1 X97.746 Y172.271 E0.03765
G1 X97.856 Y171.262 E0.03765
G1 X98.074 Y170.270 E0.03765
G1 X98.399 Y169.308 E0.03765
G1 X98.823 Y168.391 E0.03745
G1 X99.348 Y167.516 E0.03785
G1 X99.963 Y166.708 E0.03764
G1 X100.661 Y165.971 E0.03765
G1 X101.435 Y165.313 E0.03765
G1 X102.275 Y164.744 E0.03765
G1 X103.173 Y164.268 E0.03765
G1 X104.116 Y163.892 E0.03765
G1 X105.094 Y163.621 E0.03765
G1 X106.096 Y163.456 E0.03765
G1 X107.110 Y163.401 E0.03765
G1 X108.119 Y163.456 E0.03745
G1 X109.126 Y163.621 E0.03785
G1 X110.105 Y163.892 E0.03764
G1 X111.048 Y164.268 E0.03765
G1 X111.945 Y164.744 E0.03765
G1 X112.785 Y165.313 E0.03765
G1 X113.559 Y165.971 E0.03765
G1 X114.258 Y166.708 E0.03765
G1 X114.872 Y167.516 E0.03765
G1 X115.396 Y168.386 E0.03765
G1 X115.797 Y169.254 E0.03542
G1 X116.198 Y169.181 F4800.000
G1 F1125
G1 X116.527 Y170.159 E0.03825
G1 X116.756 Y171.198 E0.03944
G1 X116.871 Y172.250 E0.03924
G1 X116.870 Y173.311 E0.03934
G1 X116.756 Y174.360 E0.03914
G1 X116.529 Y175.394 E0.03924
G1 X116.191 Y176.397 E0.03924
G1 X115.746 Y177.358 E0.03924
G1 X115.201 Y178.264 E0.03924
G1 X114.560 Y179.107 E0.03924
G1 X113.832 Y179.875 E0.03924
G1 X113.028 Y180.558 E0.03912
G1 X112.148 Y181.155 E0.03942
G1 X111.214 Y181.650 E0.03918
G1 X110.231 Y182.042 E0.03924
G1 X109.211 Y182.325 E0.03924
G1 X108.167 Y182.496 E0.03924
G1 X107.110 Y182.554 E0.03924
G1 X106.053 Y182.496 E0.03924
G1 X105.009 Y182.325 E0.03924
G1 X103.989 Y182.042 E0.03924
G1 X103.006 Y181.650 E0.03924
G1 X102.072 Y181.155 E0.03917
G1 X101.193 Y180.559 E0.03942
G1 X100.388 Y179.875 E0.03913
G1 X99.660 Y179.107 E0.03924
G1 X99.020 Y178.264 E0.03924
G1 X98.476 Y177.360 E0.03913
G1 X98.029 Y176.395 E0.03943
G1 X97.692 Y175.394 E0.03916
G1 X97.464 Y174.360 E0.03924
G1 X97.350 Y173.308 E0.03924
G1 X97.350 Y172.250 E0.03924
G1 X97.464 Y171.198 E0.03924
G1 X97.692 Y170.164 E0.03924
G1 X98.030 Y169.161 E0.03924
G1 X98.472 Y168.205 E0.03904
G1 X99.020 Y167.294 E0.03944
G1 X99.660 Y166.451 E0.03924
G1 X100.388 Y165.683 E0.03924
G1 X101.195 Y164.997 E0.03924
G1 X102.071 Y164.404 E0.03924
G1 X103.006 Y163.908 E0.03924
G1 X103.989 Y163.516 E0.03924
G1 X105.009 Y163.233 E0.03924
G1 X106.053 Y163.062 E0.03924
G1 X107.110 Y163.004 E0.03924
G1 X108.162 Y163.061 E0.03904
G1 X109.212 Y163.233 E0.03944
G1 X110.231 Y163.516 E0.03924
G1 X111.214 Y163.908 E0.03924
G1 X112.150 Y164.404 E0.03924
G1 X113.026 Y164.997 E0.03924
G1 X113.832 Y165.683 E0.03924
G1 X114.560 Y166.451 E0.03924
G1 X115.201 Y167.294 E0.03924
G1 X115.746 Y168.200 E0.03924
G1 X116.174 Y169.126 E0.03781
G1 X115.950 Y169.495 F4800.000
G1 X115.585 Y168.843
G1 F1800
G1 X111.445 Y164.703 E0.21846
G1 X110.964 Y164.448 E0.02030
G1 X110.402 Y164.224 E0.02259
G1 X115.677 Y169.499 E0.27838
G1 X115.959 Y170.345 E0.03328
G1 X109.561 Y163.947 E0.33766
G1 X109.084 Y163.814 E0.01848
G1 X108.821 Y163.772 E0.00992
G1 X116.119 Y171.069 E0.38511
G1 X116.169 Y171.294 E0.00860
G1 X116.216 Y171.730 E0.01637
G1 X108.147 Y163.661 E0.42582
G1 X107.545 Y163.623 E0.02252
G1 X116.276 Y172.355 E0.46076
G1 X116.276 Y172.919 E0.02105
G1 X106.965 Y163.608 E0.49136
G1 X106.430 Y163.637 E0.02000
G1 X116.256 Y173.463 E0.51854
G1 X116.200 Y173.971 E0.01910
G1 X105.916 Y163.687 E0.54274
G1 X105.431 Y163.766 E0.01833
G1 X116.125 Y174.460 E0.56436
G1 X116.024 Y174.923 E0.01767
G1 X104.963 Y163.863 E0.58367
G1 X104.522 Y163.985 E0.01710
G1 X115.909 Y175.372 E0.60091
G1 X115.766 Y175.794 E0.01662
G1 X104.089 Y164.116 E0.61625
G1 X103.685 Y164.277 E0.01620
G1 X115.621 Y176.213 E0.62986
G1 X115.442 Y176.598 E0.01586
G1 X103.282 Y164.438 E0.64173
G1 X103.256 Y164.448 E0.00105
G1 X102.911 Y164.631 E0.01457
G1 X115.264 Y176.984 E0.65189
G1 X115.060 Y177.344 E0.01545
G1 X102.542 Y164.826 E0.66060
G1 X102.192 Y165.040 E0.01532
G1 X114.848 Y177.697 E0.66792
G1 X114.626 Y178.038 E0.01521
G1 X101.855 Y165.268 E0.67392
G1 X101.523 Y165.499 E0.01512
G1 X114.382 Y178.359 E0.67863
G1 X114.139 Y178.679 E0.01502
G1 X101.218 Y165.758 E0.68187
G1 X100.913 Y166.017 E0.01493
G1 X113.868 Y178.973 E0.68370
G1 X113.594 Y179.263 E0.01489
G1 X100.627 Y166.295 E0.68430
G1 X100.352 Y166.585 E0.01489
G1 X113.308 Y179.541 E0.68370
G1 X113.003 Y179.800 E0.01493
G1 X100.082 Y166.879 E0.68187
G1 X99.838 Y167.199 E0.01502
G1 X112.698 Y180.059 E0.67863
G1 X112.365 Y180.290 E0.01513
G1 X99.595 Y167.520 E0.67391
G1 X99.372 Y167.862 E0.01521
G1 X112.029 Y180.518 E0.66791
G1 X111.678 Y180.732 E0.01532
G1 X99.160 Y168.214 E0.66058
G1 X98.956 Y168.574 E0.01545
G1 X111.309 Y180.927 E0.65189
G1 X110.938 Y181.120 E0.01561
G1 X98.778 Y168.960 E0.64173
G1 X98.599 Y169.346 E0.01586
G1 X110.535 Y181.281 E0.62986
G1 X110.132 Y181.442 E0.01620
G1 X98.454 Y169.764 E0.61625
G1 X98.312 Y170.186 E0.01662
G1 X109.699 Y181.573 E0.60090
G1 X109.257 Y181.696 E0.01710
G1 X98.197 Y170.635 E0.58367
G1 X98.095 Y171.098 E0.01767
G1 X108.789 Y181.792 E0.56435
G1 X108.305 Y181.871 E0.01833
G1 X98.020 Y171.587 E0.54274
G1 X97.965 Y172.096 E0.01910
G1 X107.790 Y181.921 E0.51853
G1 X107.255 Y181.950 E0.02000
G1 X97.944 Y172.639 E0.49136
G1 X97.944 Y173.204 E0.02105
G1 X106.675 Y181.935 E0.46076
G1 X106.074 Y181.897 E0.02249
G1 X98.004 Y173.828 E0.42585
G1 X98.052 Y174.264 E0.01638
G1 X98.101 Y174.489 E0.00859
G1 X105.399 Y181.787 E0.38512
G1 X105.137 Y181.744 E0.00992
G1 X104.659 Y181.611 E0.01849
G1 X98.261 Y175.212 E0.33768
G1 X98.543 Y176.059 E0.03331
G1 X103.818 Y181.334 E0.27837
G1 X103.256 Y181.110 E0.02258
G1 X102.775 Y180.855 E0.02031
G1 X98.636 Y176.716 E0.21842
G1 X99.332 Y177.976 F4800.000
G1 F1800
G1 X101.874 Y180.518 E0.13414
G10 ; retract
G1 X114.889 Y167.582 F4800.000
G11 ; unretract
G1 F1800
G1 X112.345 Y165.039 E0.13421
G10 ; retract
G1 X109.126 Y141.938 F4800.000
G11 ; unretract
G1 F1500
G1 X108.124 Y142.102 E0.03765
G1 X107.110 Y142.157 E0.03765
G1 X106.096 Y142.102 E0.03765
G1 X105.094 Y141.938 E0.03765
G1 X104.116 Y141.666 E0.03765
G1 X103.173 Y141.290 E0.03765
G1 X102.280 Y140.817 E0.03745
G1 X101.435 Y140.244 E0.03785
G1 X100.661 Y139.587 E0.03764
G1 X99.963 Y138.850 E0.03765
G1 X99.348 Y138.042 E0.03765
G1 X98.825 Y137.172 E0.03765
G1 X98.399 Y136.250 E0.03765
G1 X98.076 Y135.293 E0.03745
G1 X97.856 Y134.296 E0.03785
G1 X97.746 Y133.287 E0.03764
G1 X97.746 Y132.269 E0.03775
G1 X97.856 Y131.262 E0.03755
G1 X98.074 Y130.270 E0.03765
G1 X98.399 Y129.308 E0.03765
G1 X98.824 Y128.389 E0.03755
G1 X99.350 Y127.514 E0.03784
G1 X99.963 Y126.708 E0.03755
G1 X100.663 Y125.969 E0.03772
G1 X101.435 Y125.313 E0.03757
G1 X102.275 Y124.744 E0.03765
G1 X103.173 Y124.268 E0.03765
G1 X104.116 Y123.892 E0.03765
G1 X105.094 Y123.621 E0.03765
G1 X106.096 Y123.456 E0.03765
G1 X107.110 Y123.401 E0.03765
G1 X108.119 Y123.456 E0.03745
G1 X109.130 Y123.622 E0.03800
G1 X110.104 Y123.892 E0.03749
G1 X111.051 Y124.270 E0.03778
G1 X111.945 Y124.744 E0.03752
G1 X112.785 Y125.313 E0.03765
G1 X113.559 Y125.971 E0.03765
G1 X114.258 Y126.708 E0.03765
G1 X114.872 Y127.516 E0.03765
G1 X115.394 Y128.384 E0.03754
G1 X115.823 Y129.310 E0.03784
G1 X116.146 Y130.270 E0.03757
G1 X116.364 Y131.262 E0.03765
G1 X116.474 Y132.271 E0.03765
G1 X116.474 Y133.287 E0.03765
G1 X116.364 Y134.296 E0.03765
G1 X116.146 Y135.288 E0.03765
G1 X115.822 Y136.250 E0.03765
G1 X115.398 Y137.167 E0.03745
G1 X114.872 Y138.042 E0.03785
G1 X114.258 Y138.850 E0.03764
G1 X113.559 Y139.587 E0.03765
G1 X112.785 Y140.245 E0.03765
G1 X111.945 Y140.814 E0.03765
G1 X111.048 Y141.290 E0.03765
G1 X110.105 Y141.666 E0.03765
G1 X109.184 Y141.921 E0.03542
G1 X109.190 Y142.329 F4800.000
G1 F1125
G1 X108.167 Y142.496 E0.03844
G1 X107.110 Y142.554 E0.03924
G1 X106.053 Y142.496 E0.03924
G1 X105.009 Y142.325 E0.03924
G1 X103.989 Y142.042 E0.03924
G1 X103.006 Y141.650 E0.03924
G1 X102.076 Y141.157 E0.03904
G1 X101.195 Y140.561 E0.03944
G1 X100.388 Y139.875 E0.03924
G1 X99.660 Y139.107 E0.03924
G1 X99.020 Y138.264 E0.03924
